X:1
T:Title
%%score { 1 | 2 }
L:1/8
M:6/8
K:Eb
V:1 treble nm="Grand Piano"
V:2 bass 
V:1
 z3 z2[Q:1/4=81] E | G>GG [DB][DA]D | E G2- G2 G | [GB]>[GB][GB] [GB][FA][EG] | [DF]3- [DF]2 E | %5
 G>GG [DB][DA]D |[M:5/8] EG- G3 |[M:1/8] G |[M:3/4] GF F=A Bc |[M:5/8] [DB]-[DB]- [DB]3 | %10
[M:1/8] [AB] |[M:3/4] [Ge]>[Ge] [Ge][EG] [FA][GB] | [Bd]c- c3 c | FG A[GB] [Ad][Ac] | %14
 [GB]4- [GB][GB] | [Ge]>[Ge] [Ge][GB] GE |[M:7/8] GAB c3 c/c/ |[M:3/4] BG A[EG]/[DG]/- [DG][DF] | %18
[M:5/8] E-E- E3 |] %19
V:2
 z3 z2 [E,G,] | [E,B,E]>[E,B,E][E,B,E] [B,,B,][B,,F,][B,,A,B,] | %2
 [E,G,B,] [E,B,E]2- [E,B,E]2 [E,B,E] | [E,E]>[E,E][E,E] [E,E][E,E][E,B,] | %4
 [B,,B,]3- [B,,B,]2 [E,G,] | [E,B,E]>[E,B,E][E,B,E] [B,,B,][B,,F,][B,,A,B,] | %6
[M:5/8] [E,G,B,][E,B,E]- [E,B,E]3 |[M:1/8] [E,B,E] | %8
[M:3/4] [F,B,D][F,B,D] [F,B,D][F,CE] [F,B,D][F,=A,E] |[M:5/8] [B,,B,]-[B,,B,]- [B,,B,]3 | %10
[M:1/8] [B,D] |[M:3/4] [E,B,]>[E,B,] [E,B,][E,B,] [E,B,][E,E] | [A,E][A,EA]- [A,EA]3 [A,E] | %13
 [B,D][B,E] [B,F][K:bass][B,,B,] [C,B,][D,B,] | [E,B,]4- [E,B,][E,E] | %15
 [E,B,]>[E,B,] [E,B,][E,B,] [E,B,E][E,G,] | %16
[M:7/8] [E,B,E][F,B,D][K:treble][G,B,E] [A,E]3 [A,EA]/[A,EA]/ | %17
[M:3/4] [B,EG][K:bass][B,E] [B,E][B,,B,]/[B,,B,]/- [B,,B,][B,,A,] | %18
[M:5/8] [E,G,]-[E,G,]- [E,G,]3 |] %19

